X:1
T:Title
L:1/8
M:9/8
I:linebreak $
K:G
V:1 treble nm="Voice"
V:1
"Em" PE3 e2 B G2 B |"D" A2 A A2 G A2 B |"Em" PE3 G2 B e2 f |1 gfe"D" fed"Em" B2 e :|2 %4
 gfe"D" fed"Em" e2 f ||"Em" g2 B BAB g2 e |"D" f2 A AGA f2 a |"Em" g2 B BAB g2 e |"D" fdd add fga | %9
"Em" g2 B BAB g2 e |"D" f2 A AGA f2 a |"Em" gfe"D" fed"Em" efg | BcB"D" AGF"Em" E2 B |] %13
